!!!SOCIAL_FUNCTION:	songs of war
!!!PDT:	1918

Specific Region: Dakotas, Minnesota, Montana, Nebraska
!!!REG: Dakotas and Montana
!!!LING_GROUP: Siouan
!!!LANG: Tone
!!!OTL@ENG: Wolf Song
!!!ONM: No. 133b
**kern
*Imale
*clefF4
*k[f#c#]
*M2/4
*MM108
8.f#
16e
4d
=2
8.f#
16e
4d
=3
8d
8d
8d
8B
=4
8.d
16d
[4B
=5
4B]
4B
=6
8.f#
16e
4d
=7
8.f#
16e
4d
=8
8d
8d
8d
8B
=9
8.d
16d
4B
=10||
*M3/4
16A
8.A
16A
8.F#
4F#
=11
16.d
32d
8B
4d
4B
=12||
*M2/4
16A
8.A
16A
8.F#
=13
8.F#
16E
8D
16F#
16E
=14
4D
8E
8D
=15||
*M3/4
8.BB
16BB
4.BB
8BB
=16
4BB
4BB
8.d
16d
=17
12d
12f#
12e
12d
(12f#
12e)
4d
=18||
*M2/4
16d
8.d
8d
8B
=19
4d
8.B
16B
=20||
*M3/4
16A
8.A
16A
8.F#
4F#
=21
16.d
32d
8B
4d
4B
=22||
*M2/4
16A
8.A
16A
8.F#
=23
(8.F#
16E)
8D
16F#
16E
=24
4D
8E
8D
=25
8BB
8BB
4BB
=26
4BB
4BB
==
*-
!!!CNT: Native American -- Sioux
!!!MRD: 1911/07//-1914///
!!!OCL: Frances Densmore
!!!YOR1: Teton Sioux Music, Bulletin 61,
!!!YOR2: Bureau of American Ethnology, Smithsonian Institution
!!!PPR: Government Printing Office
!!!PPP: Washington, D.C.
!!!PDT: 1918///
!!!ENC: Craig Stuart Sapp
!!!END: 2002/03/25/
!!!EEV: 2002/03/31/
!!!AGN: War Song/Song of a Typical War Expedition
!!!MPN@@SIO: Waha'chungka-nong'pa
!!!MPN@ENG: Two Shields
!!!TXO: Teton Sioux
!!!MLC: Standing Rock Reservation, South Dakota, United States of America
!!!ARL: 45.9/-100.7#
!!!catalog: Catalogue No. 524
!!!PPG: 346
!!!EFL: 136/245
!!!VTS: 3274792646
